!!!COM: Gonzaga, Francisca
!!!CDT: 1847/10/17-1935/02/28
!!!OTL: Água do Vintém
**kern	**kern	**dynam
*part1	*part1	*part1
*staff2	*staff1	*
*clefF4	*clefG2	*
*k[b-]	*k[b-]	*
*M2/4	*M2/4	*
=	=	=
*F:	*F:	*
16r	16cccLL	p
8r	16ddd	.
.	16fffJJ	.
=||	=||	=||
16CKL	16eeeLL	.
8B- 8c 8e	16bb-	.
.	16ccc	.
16B-Jk 16c 16e	16dddJJ	.
16CKL	16cccLL	.
8B- 8c 8e	16gg	.
.	16aa	.
16B-Jk 16c 16e	16bb-JJ	.
=1	=1	=1
16CKL	8.dd^L	.
8A 8c 8f	.	.
16AJk 16c 16f	16ccJk	.
16CKL	16r	.
8A 8c 8f	(16ffLL	.
.	16gg	.
16AJk 16c 16f	16aaJJ)	.
=2	=2	=2
16DKL 16Bn	8.a^L	.
8F 8B 8d	.	.
16FJk 16B 16d	16gJk	.
16EKL	16r	.
8B-X 8c 8e	(16ggLL	.
.	16aa	.
16B-Jk 16c 16e	16bb-JJ)	.
=3	=3	=3
16FKL	(16bbn^LL	.
8A 8c 8f	16ddd	.
.	16ccc	.
16AJk 16c 16f	16aaJJ)	.
16FKL	(16ff^LL	.
8A 8c 8f	16ccc	.
.	16ddd	.
16AJk 16c 16f	16fffJJ)	.
!!linebreak:original
=4	=4	=4
16CKL	(16eeeLL	.
8B- 8c 8e	16bb-	.
.	16ccc	.
16B-Jk 16c 16e	16dddJJ	.
16EKL	16cccLL	.
8B- 8c 8e	16gg	.
.	16aa	.
16B-Jk 16c 16e	16bb-JJ)	.
=5	=5	=5
16CKL	8.dd^L	.
8A 8c 8f	.	.
16AJk 16c 16f	16ccJk	.
16CKL	16r	.
8A 8c 8f	(16ffLL	.
.	16gg	.
16AJk 16c 16f	16aaJJ)	.
=6	=6	=6
16DKL	(16bb-LL	.
8G 8B- 8d	16ddd	.
.	16fff	.
16GJk 16B- 16d	16dddJJ)	.
.	16qqccc/LL	.
.	16qqddd/JJ	.
16CKL	(16cccLL	.
8B- 8c 8e	16cc	.
.	16gg	.
16B-Jk 16c 16e	16aaJJ)	.
=7	=7	=7
8FFL	8ffL	.
8AJ 8c 8f	8ffJ 8aa 8ccc 8fff	.
4r	16r	.
*d:	*d:	*
.	(16ffLL	mf
.	16ee	.
.	16ddJJ)	.
=8	=8	=8
16GKL	16aa^LL	.
8A 8c#X 8e	(16g	.
.	16a	.
16AJk 16c# 16e	16cc#XJJ)	.
8GL	16ee^LL	.
.	(16g	.
8AJ 8c# 8e	16a	.
.	16ffJJ)	.
!!linebreak:original
=9	=9	=9
16DKL	8.f^L 8.a 8.ee	.
8F 8A 8d	.	.
16FJk 16A 16d	16ddJk	.
8DL	16r	.
.	(16ffLL	.
8FJ 8A 8d	16ee	.
.	16ddJJ)	.
=10	=10	=10
*g:	*g:	*
16DKL	16aa^LL	.
8F#X 8c 8d	(16cc	.
.	16dd	.
16F#Jk 16c 16d	16ff#XJJ	.
8DL	16aaLL)	.
.	(16ccc	.
8F#J 8c 8d	16bb-	.
.	16aaJJ)	.
=11	=11	=11
16GGKL	8.dddL	.
8G 8B- 8d	.	.
16GJk 16B- 16d	16dddJk	.
8GGL	16r	.
.	(16dddLL	.
8GJ 8B- 8d	16ccc#X	.
.	16dddJJ)	.
=12	=12	=12
*F:	*F:	*
16BB-KL	8dddL 8fff	.
8G 8B- 8d	.	.
.	8dddJ 8fff	.
16GJk 16B- 16d	.	.
8DL	8cccL 8eee	.
8GJ 8B- 8d	8bb-J 8ddd	.
=13	=13	=13
16CKL	8.aaL 8.ccc	.
8A 8c 8f	.	.
16AJk 16c 16f	16aaJk 16ccc	.
8CL	16r	.
.	16ccc#XLL	.
8AJ 8c 8f	16eee	.
.	16dddJJ	.
!!linebreak:original
=14	=14	=14
16EKL	16cccLL	.
8B- 8c 8e	16bbn	.
.	16bb-X	.
16B-Jk 16c 16e	16ggJJ	.
8CL	16eeLL	.
.	16ee-X	.
8B-J 8c 8e	16dd	.
.	16cc#XJJ	.
=15	=15	=15
16FKL	(16ccLL	.
8A 8c 8f	16aa	.
.	16ff	.
16AJk 16c 16f	16ddJJ)	.
8CL	(16ccLL	.
.	16a	.
8FJ 8A 8c	16f	.
.	16cJJ)	.
=16	=16	=16
*d:	*d:	*
16AAKL	16ff^LL	.
8G 8A 8c#X 8e	16g	.
.	16a	.
16GJk 16A 16c# 16e	16cc#XJJ	.
8AAL	16ee^LL	.
.	(16g	.
8GJ 8A 8c# 8e	16a	.
.	16ffJJ)	.
=17	=17	=17
16DKL	8.f^L 8.a 8.ee	.
8F 8A 8d	.	.
16FJk 16A 16d	16ddJk	.
8DL	16r	.
.	(16ffLL	.
8FJ 8A 8d	16ee	.
.	16ddJJ)	.
=18	=18	=18
*g:	*g:	*
16DKL	(16aa^LL	.
8F#X 8c 8d	16cc	.
.	16dd	.
16F#Jk 16c 16d	16ff#XJJ)	.
8DL	(16aaLL	.
.	16ccc	.
8F#J 8c 8d	16bb-	.
.	16aaJJ)	.
!!linebreak:original
=19	=19	=19
16GGKL	8.dddL	.
8G 8B- 8d	.	.
16GJk 16B- 16d	16dddJk	.
8GGL	16r	.
.	16dddLL	.
8GJ 8B- 8d	16ccc#X	.
.	16dddJJ	.
=20	=20	=20
16BB-KL	8fffL	.
8G 8B- 8d	.	.
.	8fffJ	.
16GJk 16B- 16d	.	.
8DL	8eeeL	.
8GJ 8B- 8d	8dddJ	.
=21	=21	=21
*d:	*d:	*
16AAKL	(16aaaLL	.
8F 8A 8d	16fff	.
.	16ddd	.
16FJk 16A 16d	16aaJJ)	.
8AAL	(16ffLL	.
.	16dd	.
8FJ 8A 8d	16a	.
.	16fJJ)	.
=22	=22	=22
16EKL	(16ff^LL	.
8G 8A 8c#X	16g	.
.	16a	.
16GJk 16A 16c#	16cc#XJJ)	.
8EL	(16ee^LL	.
.	16g	.
8GJ 8A 8c#	16a	.
.	16eeJJ)	.
=23	=23	=23
16DKL	4f 4a 4dd	.
8FJ 8A 8d	.	.
4r	.	.
.	16r	.
.	16cccLL	.
.	16ddd	.
16r	16fffJJ	.
!!linebreak:original
=24	=24	=24
*F:	*F:	*
16CKL	(16eeeLL	.
8B- 8c 8e	16bb-	.
.	16ccc	.
16B-Jk 16c 16e	16dddJJ	.
16EKL	16cccLL	.
8B- 8c 8e	16gg	.
.	16aa	.
16B-Jk 16c 16e	16bb-JJ)	.
=25	=25	=25
16CKL	8.dd^L	.
8A 8c 8f	.	.
16AJk 16c 16f	16ccJk	.
16CKL	16r	.
8A 8c 8f	(16ffLL	.
.	16gg	.
16AJk 16c 16f	16aaJJ)	.
=26	=26	=26
16DKL 16Bn	8.a^L	.
8F 8B 8d	.	.
16FJk 16B 16d	16gJk	.
16EKL	16r	.
8B-X 8c 8e	(16ggLL	.
.	16aa	.
16B-Jk 16c 16e	16bb-JJ)	.
=27	=27	=27
16FKL	(16bbn^LL	.
8A 8c 8f	16ddd	.
.	16ccc	.
16AJk 16c 16f	16aaJJ)	.
16FKL	16ff^LL	.
8A 8c 8f	(16ccc	.
.	16ddd	.
16AJk 16c 16f	16fffJJ)	.
=28	=28	=28
16CKL	(16eeeLL	.
8B- 8c 8e	16bb-	.
.	16ccc	.
16B-Jk 16c 16e	16dddJJ	.
16EKL	16cccLL	.
8B- 8c 8e	16gg	.
.	16aa	.
16B-Jk 16c 16e	16bb-JJ)	.
!!pagebreak:original
=29	=29	=29
16CKL	8.dd^L	.
8A 8c 8f	.	.
16AJk 16c 16f	16ccJk	.
16CKL	16r	.
8A 8c 8f	(16ffLL	.
.	16gg	.
16AJk 16c 16f	16aaJJ)	.
=30	=30	=30
16DKL	(16bb-LL	.
8G 8B- 8d	16ddd	.
.	16fff	.
16GJk 16B- 16d	16dddJJ)	.
.	16qqccc/LL	.
.	16qqddd/JJ	.
16CKL	(16cccLL	.
8B- 8c 8e	16cc	.
.	16gg	.
16B-Jk 16c 16e	16aaJJ)	.
=31	=31	=31
8F	4ff	.
8r	.	.
8A 8c 8f	8ff 8aa 8ccc 8fff	f
8r	8r	.
=32	=32	=32
*k[b-e-]	*k[b-e-]	*
*B-:	*B-:	*
4BB-	16r	p
!	!LO:TX:b:i:t=embalando	!
.	16B-LL 16d 16f	.
.	16B- 16d 16f	.
.	16B-JJ 16d 16f	.
8.FFL	8r	.
.	8A 8e- 8f	.
16FFJk	.	.
=33	=33	=33
4BB-	16r	.
.	16B-LL 16d 16f	.
.	16B- 16d 16f	.
.	16B-JJ 16d 16f	.
8.FFL	8r	.
.	8A 8e- 8f	.
16FFJk	.	.
=34	=34	=34
8BB-L	8r	.
8FJ 8B- 8d	8b-	.
8DL	8ddL 8bb-	.
8FJ 8B- 8d	8b-J 8gg	.
!!linebreak:original
=35	=35	=35
16FFKL	8.aL 8.ee- 8.ff	.
8F 8A 8e-	.	.
16FJk 16A 16e-	16aJk 16ee- 16ff	.
8FFL	16r	.
.	(16ee-LL	.
8FJ 8A 8e-	16cc	.
.	16aJJ)	.
=36	=36	=36
16DKL	8b-L	.
8F 8B- 8d	.	.
.	8b-J	.
16FJk 16B- 16d	.	.
8DL	8b-L 8aa	.
8FJ 8B- 8d	8b-J 8gg	.
=37	=37	=37
16CKL	8.e-^L 8.a	.
8E- 8A	.	.
16E-Jk 16A	16e-Jk 16a	.
8FFL	16r	.
.	(16fLL	.
8E-J 8A	16g	.
.	16aJJ)	.
=38	=38	=38
16BB-KL	8.b-L	.
8F 8B- 8d	.	.
16FJk 16B- 16d	16b-Jk	.
8DL	(16aLL	.
.	16g#X	.
8F#XJ 8c 8d	16a	.
.	16ddJJ)	.
=39	=39	=39
16GGKL	8.gL	.
8G 8B- 8d	.	.
16GJk 16B- 16d	16gJk	.
8GGL	16r	.
.	16ddLL	.
8GJ 8B- 8d	16een	.
.	16ffJJ	.
=40	=40	=40
16CKL	16aaLL	.
8A 8c 8f	16een	.
.	16ff	.
16AJk 16c 16f	16ddJJ	.
8CL	16ccLL	.
.	16cc#X	.
8B-J 8c 8en	16dd	.
!	!LO:TX:a:t=Viva a Água \ndo Vintém	!
.	16eeJJ	.
!!linebreak:original
=41	=41	=41
8FL	8ff	.
8AJ 8c 8f	8r	.
4F 4A 4e-	4ff	.
=42	=42	=42
4BB-	16r	.
.	16B-LL 16d 16f	.
.	16B- 16d 16f	.
.	16B-JJ 16d 16f	.
8.FFL	8r	.
.	8A 8e- 8f	.
16FFJk	.	.
=43	=43	=43
4BB-	16r	.
.	16B-LL 16d 16f	.
.	16B- 16d 16f	.
.	16B-JJ 16d 16f	.
8.FFL	8r	.
.	8A 8e- 8f	.
16FFJk	.	.
=44	=44	=44
8BB-L	8r	.
8FJ 8B- 8d	8b-	.
8DL	8ddL 8bb-	.
8FJ 8B- 8d	8b-J 8gg	.
=45	=45	=45
16FFKL	8.aL 8.ee- 8.ff	.
8F 8A 8e-	.	.
16FJk 16A 16e-	16aJk 16ee- 16ff	.
8FFL	16r	.
.	(16ee-LL	.
8FJ 8A 8e-	16cc	.
.	16aJJ)	.
=46	=46	=46
8BB-L	8b-L	.
8FJ 8B- 8d	8b-J	.
8DL	8b-L 8aa	.
8FJ 8B- 8d	8b-J 8gg	.
!!linebreak:original
=47	=47	=47
16CKL	8.e-L 8.a	.
8E- 8A	.	.
16E-Jk 16A	16e-Jk 16a	.
8FFL	16r	.
.	16fLL	.
8E-J 8A	16g	.
.	16aJJ	.
=48	=48	=48
16BB-KL	8.b-L	.
8F 8B- 8d	.	.
16FJk 16B- 16d	16b-Jk	.
8A-XL	16ccLL	.
.	16b-	.
8B-J 8d 8f	16a	.
.	16b-JJ	.
=49	=49	=49
16GKL	8.bb-L	.
8B- 8e- 8g	.	.
16B-Jk 16e- 16g	16bb-Jk	.
8GL	16r	.
.	16bb-LL	.
8B-J 8e- 8g	16aa	.
.	16bb-JJ	.
=50	=50	=50
16FKL	16dddLL	.
8B- 8d 8f	16aa	.
.	16bb-	.
16B-Jk 16d 16f	16ddJJ	.
8FL	16ggLL	.
.	16cc	.
8AJ 8e-	16ee-	.
.	16aJJ	.
=51	=51	=51
8B-L 8d	8b-L	.
8BB-J	8ddJ 8ff 8bb-	.
4r	16r	.
.	16cccLL	.
.	16ddd	.
.	16fffJJ	.
!!linebreak:original
=52	=52	=52
*F:	*F:	*
16CKL	16eeenLL	.
8B- 8c 8en	16bb-	.
.	16ccc	.
16B-Jk 16c 16e	16dddJJ	.
16CKL	16cccLL	.
8B- 8c 8e	16gg	.
.	16aa	.
16B-Jk 16c 16e	16bb-JJ	.
=53	=53	=53
16CKL	8.dd^L	.
8A 8c 8f	.	.
16AJk 16c 16f	16ccJk	.
16CKL	16r	.
8A 8c 8f	(16ffLL	.
.	16gg	.
16AJk 16c 16f	16aaJJ)	.
=54	=54	=54
16DKL 16Bn	8.a^L	.
8F 8B 8d	.	.
16FJk 16B 16d	16gJk	.
16EnKL	16r	.
8B-X 8c 8en	(16ggLL	.
.	16aa	.
16B-Jk 16c 16e	16bb-JJ)	.
=55	=55	=55
16FKL	(16bbn^LL	.
8A 8c 8f	16ddd	.
.	16ccc	.
16AJk 16c 16f	16aaJJ)	.
16FKL	(16ff^LL	.
8A 8c 8f	16ccc	.
.	16ddd	.
16AJk 16c 16f	16fffJJ)	.
=56	=56	=56
16CKL	(16eeenLL	.
8B- 8c 8en	16bb-	.
.	16ccc	.
16B-Jk 16c 16e	16dddJJ	.
16EnKL	16cccLL	.
8B- 8c 8e	16gg	.
.	16aa	.
16B-Jk 16c 16e	16bb-JJ)	.
!!linebreak:original
=57	=57	=57
16CKL	8.dd^L	.
8A 8c 8f	.	.
16AJk 16c 16f	16ccJk	.
16CKL	16r	.
8A 8c 8f	(16ffLL	.
.	16gg	.
16AJk 16c 16f	16aaJJ)	.
=58	=58	=58
16DKL	(16bb-LL	.
8G 8B- 8d	16ddd	.
.	16fff	.
16GJk 16B- 16d	16dddJJ)	.
.	16qqccc/LL	.
.	16qqddd/JJ	.
16CKL	(16cccLL	.
8B- 8c 8en	16cc	.
.	16gg	.
16B-Jk 16c 16e	16aaJJ)	.
=59	=59	=59
8FFL	8ffL	.
8AJ 8c 8f	8ffJ 8aa 8ccc 8fff	.
4r	16r	.
.	(16ffLL	mf
.	16een	.
.	16ddJJ)	.
=60	=60	=60
*d:	*d:	*
16GKL	16aa^LL	.
8A 8c#X 8en	(16g	.
.	16a	.
16AJk 16c# 16e	16cc#XJJ)	.
8GL	16een^LL	.
.	(16g	.
8AJ 8c# 8e	16a	.
.	16ffJJ)	.
=61	=61	=61
16DKL	8.f^L 8.a 8.een	.
8F 8A 8d	.	.
16FJk 16A 16d	16ddJk	.
8DL	16r	.
.	(16ffLL	.
8FJ 8A 8d	16ee	.
.	16ddJJ)	.
!!pagebreak:original
=62	=62	=62
*g:	*g:	*
16DKL	16aa^LL	.
8F#X 8c 8d	(16cc	.
.	16dd	.
16F#Jk 16c 16d	16ff#XJJ	.
8DL	16aaLL)	.
.	(16ccc	.
8F#J 8c 8d	16bb-	.
.	16aaJJ)	.
=63	=63	=63
16GGKL	8.dddL	.
8G 8B- 8d	.	.
16GJk 16B- 16d	16dddJk	.
8GGL	16r	.
.	(16dddLL	.
8GJ 8B- 8d	16ccc#X	.
.	16dddJJ)	.
=64	=64	=64
16BB-KL	8dddL 8fff	.
8G 8B- 8d	.	.
.	8dddJ 8fff	.
16GJk 16B- 16d	.	.
8DL	8cccL 8eeen	.
8GJ 8B- 8d	8bb-J 8ddd	.
=65	=65	=65
*F:	*F:	*
16CKL	8.aaL 8.ccc	.
8A 8c 8f	.	.
16AJk 16c 16f	16aaJk 16ccc	.
8CL	16r	.
.	16ccc#XLL	.
8AJ 8c 8f	16eeen	.
.	16dddJJ	.
=66	=66	=66
16EnKL	16cccLL	.
8B- 8c 8en	16bbn	.
.	16bb-X	.
16B-Jk 16c 16e	16ggJJ	.
8CL	16eenLL	.
.	16ee-X	.
8B-J 8c 8e	16dd	.
.	16cc#XJJ	.
!!linebreak:original
=67	=67	=67
16FKL	(16ccLL	.
8A 8c 8f	16aa	.
.	16ff	.
16AJk 16c 16f	16ddJJ)	.
8CL	(16ccLL	.
.	16a	.
8FJ 8A 8c	16f	.
.	16cJJ)	.
=68	=68	=68
*d:	*d:	*
16AAKL	16ff^LL	.
8G 8A 8c#X 8en	16g	.
.	16a	.
16GJk 16A 16c# 16e	16cc#XJJ	.
8AAL	16een^LL	.
.	(16g	.
8GJ 8A 8c# 8e	16a	.
.	16ffJJ)	.
=69	=69	=69
16DKL	8.f^L 8.a 8.een	.
8F 8A 8d	.	.
16FJk 16A 16d	16ddJk	.
8DL	16r	.
.	(16ffLL	.
8FJ 8A 8d	16ee	.
.	16ddJJ)	.
=70	=70	=70
*g:	*g:	*
16DKL	(16aa^LL	.
8F#X 8c 8d	16cc	.
.	16dd	.
16F#Jk 16c 16d	16ff#XJJ)	.
8DL	(16aaLL	.
.	16ccc	.
8F#J 8c 8d	16bb-	.
.	16aaJJ)	.
=71	=71	=71
16GGKL	8.dddL	.
8G 8B- 8d	.	.
16GJk 16B- 16d	16dddJk	.
8GGL	16r	.
.	16dddLL	.
8GJ 8B- 8d	16ccc#X	.
.	16dddJJ	.
!!linebreak:original
=72	=72	=72
16BB-KL	8fffL	.
8G 8B- 8d	.	.
.	8fffJ	.
16GJk 16B- 16d	.	.
8DL	8eeenL	.
8GJ 8B- 8d	8dddJ	.
=73	=73	=73
*d:	*d:	*
16AAKL	(16aaaLL	.
8F 8A 8d	16fff	.
.	16ddd	.
16FJk 16A 16d	16aaJJ)	.
8AAL	(16ffLL	.
.	16dd	.
8FJ 8A 8d	16a	.
.	16fJJ)	.
=74	=74	=74
16EnKL	(16ff^LL	.
8G 8A 8c#X	16g	.
.	16a	.
16GJk 16A 16c#	16cc#XJJ)	.
8EL	(16een^LL	.
.	16g	.
8GJ 8A 8c#	16a	.
.	16eeJJ)	.
=75	=75	=75
16DKL	4f 4a 4dd	.
8FJ 8A 8d	.	.
4r	.	.
.	16r	.
.	16cccLL	.
.	16ddd	.
16r	16fffJJ	.
=76	=76	=76
*F:	*F:	*
16CKL	(16eeenLL	.
8B- 8c 8en	16bb-	.
.	16ccc	.
16B-Jk 16c 16e	16dddJJ	.
16EnKL	16cccLL	.
8B- 8c 8e	16gg	.
.	16aa	.
16B-Jk 16c 16e	16bb-JJ)	.
!!linebreak:original
=77	=77	=77
16CKL	8.dd^L	.
8A 8c 8f	.	.
16AJk 16c 16f	16ccJk	.
16CKL	16r	.
8A 8c 8f	(16ffLL	.
.	16gg	.
16AJk 16c 16f	16aaJJ)	.
=78	=78	=78
16DKL 16Bn	8.a^L	.
8F 8B 8d	.	.
16FJk 16B 16d	16gJk	.
16EnKL	16r	.
8B-X 8c 8en	(16ggLL	.
.	16aa	.
16B-Jk 16c 16e	16bb-JJ)	.
=79	=79	=79
16FKL	(16bbn^LL	.
8A 8c 8f	16ddd	.
.	16ccc	.
16AJk 16c 16f	16aaJJ)	.
16FKL	16ff^LL	.
8A 8c 8f	(16ccc	.
.	16ddd	.
16AJk 16c 16f	16fffJJ)	.
=80	=80	=80
16CKL	(16eeenLL	.
8B- 8c 8en	16bb-	.
.	16ccc	.
16B-Jk 16c 16e	16dddJJ	.
16EnKL	16cccLL	.
8B- 8c 8e	16gg	.
.	16aa	.
16B-Jk 16c 16e	16bb-JJ)	.
=81	=81	=81
16CKL	8.dd^L	.
8A 8c 8f	.	.
16AJk 16c 16f	16ccJk	.
16CKL	16r	.
8A 8c 8f	(16ffLL	.
.	16gg	.
16AJk 16c 16f	16aaJJ)	.
!!linebreak:original
=82	=82	=82
16DKL	(16bb-LL	.
8G 8B- 8d	16ddd	.
.	16fff	.
16GJk 16B- 16d	16dddJJ)	.
.	16qqccc/LL	.
.	16qqddd/JJ	.
16CKL	(16cccLL	.
8B- 8c 8en	16cc	.
.	16gg	.
16B-Jk 16c 16e	16aaJJ)	.
=83	=83	=83
8F	4ff	.
8r	.	.
8A 8c 8f	8ff 8aa 8ccc 8fff	f
8r	8r	.
==	==	==
*-	*-	*-
!!!system-decoration: {(s1,s2)}
!!!AGN: Tango
!!!EED: Florian Moldaschl
!!!END: 2025/12/16
!!!ENC: Florian Moldaschl
!!!EEV: 2026/01/14
!!!title: @{OPR}, @{SCT} №@{ONM}